X:1

T:Road to Malvern

M:C|

L:1/8

C:Jim Childress

K:A

cd|efed cBAc|BAFA E3D|FGAF EFAB|cBAc B2cd|

efed cBAc|BAFA E3D|FGAF EFED|CA,B,C A,2:|

|:AB|cBAF EFA2|B3c B2 AB|cBA2 [A4f4]|[A6e6]AB|

cBAF EFA2|B3c B2AB|cABc A3:||

 

ROAD TO MAYSVILLE.  AKA and see “Maize.” Old-Time, Breakdown. C Major.

 

ROAD TO MONALEA. Irish, Reel. Composed by Sligo flute player, singer and lilter Colm O’Donnell. Colm O’Donnell – “Farewell to Evening Dances.”

